X: 194
T:KAS A BARH 2
M:4/4
L:1/8
Q:1/4=75
Z:Yves BELOTTEAU
K:Bb % 2 flats
|:GF/2G/2AA/2c/2 B/2A/2G/2F/2G/2A/2B/2c/2|GF/2G/2AA/2c/2 BAG2:|
|:dc/2d/2ec cB/2c/2dB|GF/2G/2AA/2c/2 B/2A/2G/2F/2G/2A/2B/2c/2|dc/2d/2ec
cB/2c/2dB|GF/2G/2AA/2c/2 BAG2:|
W:
W: From "Falaleiro" http://home.t-online.de/home/pheld/homepage.htm

